X:1
T:Title
%%score ( 1 2 ) ( 3 4 )
L:1/8
Q:1/4=90
M:4/4
K:Bb
V:1 treble nm="Midi_20"
V:2 treble 
V:3 bass nm="Midi_20"
V:4 bass 
V:1
"^Walmisley (S.M.)""^Thomas Attwood Walmisley\n(1814-56)" d2 | c2 B2 A2 A2 | G6 B2 | _A2 G2 F2 F2 | %4
 E6 || G2 | =A2 A2 B2 B2 | c2 c2 d2 d2 | c2 B2 A2 A2 | G6 |] %10
V:2
 G2 | G2 G2 G2 ^F2 | G6 GE | ED E2 E2 D2 | E6 || B,2 | E2 D2 D2 D2 | G2 F2 F2 G2 | =E^F G2 G2 F2 | %9
 G6 |] %10
V:3
 B,2 | C2 D2 E2 DC | B,6 G,2 | _A,2 B,2 C2 B,A, | G,6 || G,2 | G,2 ^F,2 G,2 B,2 | B,2 A,2 B,2 B,2 | %8
 C2 D2 E2 DC | =B,6 |] %10
V:4
 G,2 | E,2 D,2 C,2 D,2 | G,6 E,2 | F,2 G,E, _A,,2 B,,2 | E,6 || E,2 | C,2 D,2 G,,2 G,2 | %7
 E,2 F,2 B,,2 G,,2 | A,,2 B,,2 C,2 D,2 | G,,6 |] %10

